!!!COM: Haydn, Franz Joseph
!!!OPR: London Symphonies
!!!OTL: Symphony no. 93 in D major
!!!SCT: Hob. I:93
!!!OMV: 3
!!!OMD: Menuetto. Allegro
!!!ODT: 1791///
!!!MPD: 1792/02/17/
!!!ONB: Basses also play cello part (but not always)
**kern	**kern	**kern	**kern	**kern	**kern	**kern	**kern	**kern	**kern	**kern	**kern	**kern	**kern	**kern
*	*	*	*	*	*ITrd-1c-2	*ITrd-1c-2	*ITrd-1c-2	*ITrd-1c-2	*	*	*	*	*	*
*Icello	*Iviola	*Ivioln	*Ivioln	*Itimpa	*Itromp	*Itromp	*Icor	*Icor	*Ifagot	*Ifagot	*Ioboe	*Ioboe	*Iflt	*Iflt
*I"Violoncello	*I"Viola	*I"Violino II	*I"Violino I	*I"Timpani	*I"Tromba 2 in D	*I"Tromba 1 in D	*I"Corno 2 in D	*I"Corno 1 in D	*I"Fagotto 2	*I"Fagotto 1	*I"Oboe 2	*I"Oboe 1	*I"Flauto 2	*I"Flauto 1
*I	*I	*I#2	*I#1	*	*I#2	*I#1	*I#2	*I#1	*I#2	*I#1	*I#2	*I#1	*I#2	*I#1
*>[A,A,B,B,C,D,D,A,B]	*>[A,A,B,B,C,D,D,A,B]	*>[A,A,B,B,C,D,D,A,B]	*>[A,A,B,B,C,D,D,A,B]	*>[A,A,B,B,C,D,D,A,B]	*>[A,A,B,B,C,D,D,A,B]	*>[A,A,B,B,C,D,D,A,B]	*>[A,A,B,B,C,D,D,A,B]	*>[A,A,B,B,C,D,D,A,B]	*>[A,A,B,B,C,D,D,A,B]	*>[A,A,B,B,C,D,D,A,B]	*>[A,A,B,B,C,D,D,A,B]	*>[A,A,B,B,C,D,D,A,B]	*>[A,A,B,B,C,D,D,A,B]	*>[A,A,B,B,C,D,D,A,B]
*>norep[A,B,C,D,A,B]	*>norep[A,B,C,D,A,B]	*>norep[A,B,C,D,A,B]	*>norep[A,B,C,D,A,B]	*>norep[A,B,C,D,A,B]	*>norep[A,B,C,D,A,B]	*>norep[A,B,C,D,A,B]	*>norep[A,B,C,D,A,B]	*>norep[A,B,C,D,A,B]	*>norep[A,B,C,D,A,B]	*>norep[A,B,C,D,A,B]	*>norep[A,B,C,D,A,B]	*>norep[A,B,C,D,A,B]	*>norep[A,B,C,D,A,B]	*>norep[A,B,C,D,A,B]
*>staff10	*>staff9	*>staff8	*>staff7	*>staff6	*>staff5	*>staff5	*>staff4	*>staff4	*>staff3	*>staff3	*>staff2	*>staff2	*>staff1	>staff1
*clefF4	*clefC3	*clefG2	*clefG2	*clefF4	*clefG2	*clefG2	*clefG2	*clefG2	*clefF4	*clefF4	*clefG2	*clefG2	*clefG2	*clefG2
*k[f#c#]	*k[f#c#]	*k[f#c#]	*k[f#c#]	*M3/4	*M3/4	*M3/4	*M3/4	*M3/4	*k[f#c#]	*k[f#c#]	*k[f#c#]	*k[f#c#]	*k[f#c#]	*k[f#c#]
*D:	*D:	*D:	*D:	*D:	*D:	*D:	*D:	*D:	*D:	*D:	*D:	*D:	*D:	*D:
*M3/4	*M3/4	*M3/4	*M3/4	*	*	*	*	*	*M3/4	*M3/4	*M3/4	*M3/4	*M3/4	*M3/4
*>A	*>A	*>A	*>A	*>A	*>A	*>A	*>A	*>A	*>A	*>A	*>A	*>A	*>A	*>A
*MM198	*MM198	*MM198	*MM198	*MM198	*MM198	*MM198	*MM198	*MM198	*MM198	*MM198	*MM198	*MM198	*MM198	*MM198
4d'	4dd'	4dd	4dd'	4r	4r	4r	4r	4r	4d'	4d'	4dd'	4dd'	4ddd'	4ddd'
=1	=1	=1	=1	=1	=1	=1	=1	=1	=1	=1	=1	=1	=1	=1
4c#z	4cc#z	4cc#z	4cc#z	2.r	2.r	2.r	2.r	2.r	4c#z	4c#z	4cc#z	4cc#z	4ccc#z	4ccc#z
4d	4dd	4dd	4dd	.	.	.	.	.	4d	4d	4dd	4dd	4ddd	4ddd
4F#'	4f#'	4f#'	4f#'	.	.	.	.	.	4F#'	4F#'	4f#'	4f#'	4ff#'	4ff#'
=2	=2	=2	=2	=2	=2	=2	=2	=2	=2	=2	=2	=2	=2	=2
4Gz	4gz	4gz	4gz	2.r	2.r	2.r	2.r	2.r	4Gz	4Gz	4gz	4gz	4ggz	4ggz
4B	4b	4b	4b	.	.	.	.	.	4B	4B	4b	4b	4bb	4bb
4E'	4e'	4e'	4e'	.	.	.	.	.	4E'	4E'	4ee'	4ee'	4ee'	4ee'
=3	=3	=3	=3	=3	=3	=3	=3	=3	=3	=3	=3	=3	=3	=3
8D#'	8d#'	8d#'	8d#'	4r	4ryy	4r	4ryy	4r	8D#'	8D#'	8dd#'	8dd#'	8dd#'	8dd#'
8E'	8e'	8e'	8e'	.	.	.	.	.	8E'	8E'	8ee'	8ee'	8ee'	8ee'
8G'	8g'	8g'	8g'	4r	4ryy	4r	4ryy	4r	8G'	8G'	8gg'	8gg'	8gg'	8gg'
8E'	8e'	8e'	8e'	.	.	.	.	.	8E'	8E'	8ee'	8ee'	8ee'	8ee'
8C#'	8c#'	8c#'	8c#'	4AA	4a	4ee	4a	4ee	8C#'	8C#'	8cc#'	8cc#'	8cc#'	8cc#'
8AA'	8A'	8A'	8A'	.	.	.	.	.	8AA'	8AA'	8a'	8a'	8a'	8a'
=4	=4	=4	=4	=4	=4	=4	=4	=4	=4	=4	=4	=4	=4	=4
4Dn	4dn	4dn	4dn	4D	2dd	2ff#	2dd	2ff#	4Dn	4Dn	4ddn	4ddn	4ddn	4ddn
4F#	4f#	4f#	4f#	4r	.	.	.	.	4F#	4F#	4ff#	4ff#	4ff#	4ff#
4d'	4r	4f#'	4ff#'	4r	4ryy	4r	4ryy	4r	4r	4r	4r	4r	4ff#'	4ff#'
=5	=5	=5	=5	=5	=5	=5	=5	=5	=5	=5	=5	=5	=5	=5
4c#	2a	4e#	4ee#	2.r	2.r	2.r	2.r	2.r	2.r	2.r	2.r	2.r	4ee#	4ee#
4d	.	4f#	4ff#	.	.	.	.	.	.	.	.	.	4ff#	4ff#
4B'	4dd	4g#'	4gg#'	.	.	.	.	.	.	.	.	.	4gg#'	4gg#'
=6	=6	=6	=6	=6	=6	=6	=6	=6	=6	=6	=6	=6	=6	=6
4c#	4cc#	4a	4aa	2.r	2.r	2.r	2.r	2.r	2.r	2.r	2.r	4r	4aa	4aa
4A	4a	4cc#	4ccc#	.	.	.	.	.	.	.	.	4r	4ccc#	4ccc#
4r	4r	4c#'	4eee'	.	.	.	.	.	.	.	.	4ee	4eee'	4eee'
=7	=7	=7	=7	=7	=7	=7	=7	=7	=7	=7	=7	=7	=7	=7
4AA	8A'	8c#'	4ddd#z	4AA	4ryy	4r	4ryy	4r	8A'	8A'	4r	4dd#z	4ddd#z	4ddd#z
.	8c#'	8e'	.	.	.	.	.	.	8c#'	8c#'	.	.	.	.
4r	8A'	8c#'	4eee	4r	4a	4ee	4a	4ee	8A'	8A'	4cc#	4ee	4eee	4eee
.	8c#'	8e'	.	.	.	.	.	.	8c#'	8c#'	.	.	.	.
4r	8A'	8c#'	8ccc#'	4r	8a	8ee	8a	8ee	8A'	8A'	4cc#	8cc#'	8ccc#'	8ccc#'
.	8c#'	8e'	8aa'	.	8a	8ee	8a	8ee	8c#'	8c#'	.	8a'	8aa'	8aa'
=8	=8	=8	=8	=8	=8	=8	=8	=8	=8	=8	=8	=8	=8	=8
4E	8B	8d	4gg#'	2.r	4ee	4ee	4ee	4ee	8B	8B	4dd	4g#'	4gg#'	4gg#'
.	8d	8e	.	.	.	.	.	.	8d	8d	.	.	.	.
4r	8B	8d	4gg#'	.	4r	4r	4r	4r	8B	8B	4r	4g#'	4gg#'	4gg#'
.	8d	8e	.	.	.	.	.	.	8d	8d	.	.	.	.
4r	8B	8d	4eee'	.	4r	4r	4r	4r	8B	8B	4r	4ee'	4eee'	4eee'
.	8d	8e	.	.	.	.	.	.	8d	8d	.	.	.	.
=9	=9	=9	=9	=9	=9	=9	=9	=9	=9	=9	=9	=9	=9	=9
4E	8G#	8B	4ddd#z	2.r	4r	4r	4r	4r	8G#	8G#	4r	4dd#z	4ddd#z	4ddd#z
.	8B	8e	.	.	.	.	.	.	8B	8B	.	.	.	.
4r	8G#	8B	4eee	.	4ee	4ee	4ee	4ee	8G#	8G#	4b	4ee	4eee	4eee
.	8B	8e	.	.	.	.	.	.	8B	8B	.	.	.	.
4r	8G#	8B	8dddn'	.	8ee	8ee	8ee	8ee	8G#	8G#	4b	8ddn'	8dddn'	8dddn'
.	8B	8e	8bb'	.	8ee	8ee	8ee	8ee	8B	8B	.	8b'	8bb'	8bb'
=10	=10	=10	=10	=10	=10	=10	=10	=10	=10	=10	=10	=10	=10	=10
4AA	8A	8c#	4ccc#'	4AA	4a	4ee	4a	4ee	8A	8A	4cc#	4cc#'	4ccc#'	4ccc#'
.	8c#	8e	.	.	.	.	.	.	8c#	8c#	.	.	.	.
4r	8A	8c#	4ccc#'	4r	4ryy	4r	4ryy	4r	8A	8A	4r	4cc#'	4ccc#'	4ccc#'
.	8c#	8e	.	.	.	.	.	.	8c#	8c#	.	.	.	.
4AA	4e	8A	8ccc#	4AA	4ryy	4r	4a	4ee	4AA	4AA	4ee	8ccc#	8ccc#	8ccc#
.	.	8a	8aa	.	.	.	.	.	.	.	.	8aa	8aa	8aa
=11	=11	=11	=11	=11	=11	=11	=11	=11	=11	=11	=11	=11	=11	=11
2D	4f#	4a	4ff#'	4D	4dd	4ff#	4dd	4ff#	4D	4D	4ff#	4ff#'	4ff#'	4ff#'
.	4r	4r	8bb	4r	4ryy	4r	4ryy	4r	4r	4r	4r	8bb	8bb	8bb
.	.	.	8gg#	.	.	.	.	.	.	.	.	8gg#	8gg#	8gg#
4E	4B	4e 4dd	4ee'	4r	4ee	4ee	4ee	4ee	4E	4E	4b	4ee'	4ee'	4ee'
=12	=12	=12	=12	=12	=12	=12	=12	=12	=12	=12	=12	=12	=12	=12
4AA	4c#	4e 4cc#	4aa'	4AA	4a	4ee	4a	4aa	4AA	4AA	4cc#	4aa'	4aa'	4aa'
4AA	4c#	4e 4cc#	4aa'	4r	4a	4ee	4ryy	4r	4AA	4AA	4ee	4aa'	4aa'	4aa'
4r	4r	8ee	8ccc#	4r	4ryy	4r	4a	4ee	4r	4r	4a	8ccc#	8ccc#	8ccc#
.	.	8cc#	8aa	.	.	.	.	.	.	.	.	8aa	8aa	8aa
=13	=13	=13	=13	=13	=13	=13	=13	=13	=13	=13	=13	=13	=13	=13
2D	4A	4ff#'	4ff#'	4D	4dd	4ff#	4dd	4ff#	4D	4D	4a	4ff#'	4ff#'	4ff#'
.	4r	4dd'	8bb	4r	4ryy	4r	4ryy	4r	4r	4r	4r	8bb	8bb	8bb
.	.	.	8gg#	.	.	.	.	.	.	.	.	8gg#	8gg#	8gg#
4E	4d	4g# 4b	4ee'	4r	4ee	4ee	4ee	4ee	4E	4E	4dd	4ee'	4ee'	4ee'
=14	=14	=14	=14	=14	=14	=14	=14	=14	=14	=14	=14	=14	=14	=14
4AA	4c#	4a 4cc#	4aa'	4AA	4a	4ee	4a	4aa	4AA	4AA	4cc#	4aa'	4aa'	4aa'
4r	4r	4r	4r	4r	4ryy	4r	4ryy	4r	4r	4r	4ryy	4r	4r	4r
=:||:	=:||:	=:||:	=:||:	=:||:	=:||:	=:||:	=:||:	=:||:	=:||:	=:||:	=:||:	=:||:	=:||:	=:||:
*>B	*>B	*>B	*>B	*>B	*>B	*>B	*>B	*>B	*>B	*>B	*>B	*>B	*>B	*>B
4r	4c#	4e	4a	4r	4r	4r	4r	4r	4c#	4c#	4r	4r	4r	4r
=15	=15	=15	=15	=15	=15	=15	=15	=15	=15	=15	=15	=15	=15	=15
4r	4d	4fn	4g#	2.r	2.r	2.r	2.r	2.r	4d	4d	2.r	2.r	2.r	2.r
4r	4c#	4e	4a	.	.	.	.	.	4c#	4c#	.	.	.	.
8B-'	8B-'	4c#	4c#	.	.	.	.	.	8B-'	8B-'	.	.	.	.
8A'	8A'	.	.	.	.	.	.	.	8A'	8A'	.	.	.	.
=16	=16	=16	=16	=16	=16	=16	=16	=16	=16	=16	=16	=16	=16	=16
8G'	8G'	4d	4d	2.r	2.r	2.r	2.r	2.r	8G'	8G'	2.r	2.r	2.r	2.r
8Fn'	8Fn'	.	.	.	.	.	.	.	8Fn'	8Fn'	.	.	.	.
8E'	8E'	4fn	4fn	.	.	.	.	.	8E'	8E'	.	.	.	.
8D'	8D'	.	.	.	.	.	.	.	8D'	8D'	.	.	.	.
4r	4fn	4a	4dd	.	.	.	.	.	4fn'	4fn'	.	.	.	.
=17	=17	=17	=17	=17	=17	=17	=17	=17	=17	=17	=17	=17	=17	=17
4r	4g	4b-	4cc#	2.r	2.r	2.r	2.r	2.r	4g	4g	2.r	2.r	2.r	2.r
4r	4fn	4a	4dd	.	.	.	.	.	4fn	4fn	.	.	.	.
8E-'	4A	4f#X	4f#X	.	.	.	.	.	4A	4A	.	.	.	.
8D'	.	.	.	.	.	.	.	.	.	.	.	.	.	.
=18	=18	=18	=18	=18	=18	=18	=18	=18	=18	=18	=18	=18	=18	=18
8Cn'	4B-	4g	4g	2.r	2.r	2.r	2.r	2.r	4B-	4B-	2.r	2.r	2.r	2.r
8BB-'	.	.	.	.	.	.	.	.	.	.	.	.	.	.
8AA'	4d	4b-	4b-	.	.	.	.	.	4d	4d	.	.	.	.
8GG'	.	.	.	.	.	.	.	.	.	.	.	.	.	.
8Fn'	4Bn	4g#	4g#	.	.	.	.	.	4Bn	4Bn	.	.	.	.
8En'	.	.	.	.	.	.	.	.	.	.	.	.	.	.
=19	=19	=19	=19	=19	=19	=19	=19	=19	=19	=19	=19	=19	=19	=19
8D'	4c#X	4a	4a	2.r	2.r	2.r	2.r	2.r	4c#	4c#	2.r	2.r	2.r	2.r
8C#X'	.	.	.	.	.	.	.	.	.	.	.	.	.	.
8BBn'	4e	4cc#X	4cc#X	.	.	.	.	.	4e	4e	.	.	.	.
8AA'	.	.	.	.	.	.	.	.	.	.	.	.	.	.
4AA	8e'	8c#'	8bb-'	.	.	.	.	.	8e'	8e'	.	.	.	.
.	8fn'	8d'	8aa'	.	.	.	.	.	8fn'	8fn'	.	.	.	.
=20	=20	=20	=20	=20	=20	=20	=20	=20	=20	=20	=20	=20	=20	=20
2.AA	2.g	2.c# 2.e	8gg	4AA	2.a	2.ee	2.a	2.ee	2.g	2.g	2.gg	2.ee	2.ccc#	2.ccc#
.	.	.	8ffn	.	.	.	.	.	.	.	.	.	.	.
.	.	.	8ee	8AA	.	.	.	.	.	.	.	.	.	.
.	.	.	8dd	8AA	.	.	.	.	.	.	.	.	.	.
.	.	.	8cc#X	8AA	.	.	.	.	.	.	.	.	.	.
.	.	.	8b-	8AA	.	.	.	.	.	.	.	.	.	.
=21	=21	=21	=21	=21	=21	=21	=21	=21	=21	=21	=21	=21	=21	=21
2.AA	4fn	2.d 2.fn	8a	4AA	2.dd	2.dd	2.dd	2.dd	2.fn	2.fn	[2.ffn	2.dd	[2.ddd	[2.ddd
.	.	.	8g	.	.	.	.	.	.	.	.	.	.	.
.	4r	.	8fn	4r	.	.	.	.	.	.	.	.	.	.
.	.	.	8e	.	.	.	.	.	.	.	.	.	.	.
.	4r	.	8d	4r	.	.	.	.	.	.	.	.	.	.
.	.	.	8cn	.	.	.	.	.	.	.	.	.	.	.
=22	=22	=22	=22	=22	=22	=22	=22	=22	=22	=22	=22	=22	=22	=22
4BB-	4B-	4B-	8B-	4D	4dd	4dd	4dd	4dd	4BB-	4BB-	2.ff]	2.dd	2.ddd]	2.ddd]
.	.	.	8d	.	.	.	.	.	.	.	.	.	.	.
4AA	4A	4A	8A	8D	8dd	8dd	8dd	8dd	4AA	4AA	.	.	.	.
.	.	.	8d	8D	8dd	8dd	8dd	8dd	.	.	.	.	.	.
4GG#	4G#	4G#	8G#	8D	4dd	4dd	4dd	4dd	4GG#	4GG#	.	.	.	.
.	.	.	8d	8D	.	.	.	.	.	.	.	.	.	.
=23	=23	=23	=23	=23	=23	=23	=23	=23	=23	=23	=23	=23	=23	=23
4AA	4A	4A	8c#	4AA	4a	4a	4a	4a	4AA	4AA	4ee	4ee	4ccc#	4ccc#
.	.	.	8e	.	.	.	.	.	.	.	.	.	.	.
4r	4r	4r	8g#	4r	4r	4r	4r	4r	4r	4r	4ryy	4r	4r	4r
.	.	.	8a	.	.	.	.	.	.	.	.	.	.	.
4d	4f#X	4r	4r	4r	4r	4r	4r	4r	4f#X	4f#X	4ryy	4r	4r	4r
=24	=24	=24	=24	=24	=24	=24	=24	=24	=24	=24	=24	=24	=24	=24
4c#z	4e#z	4r	4r	2.r	2.r	2.r	2.r	2.r	4e#z	4e#z	2.r	2.r	2.r	2.r
4d	4f#	4r	4r	.	.	.	.	.	4f#	4f#	.	.	.	.
4F#	4A	8ee'	8ee'	.	.	.	.	.	4A	4A	.	.	.	.
.	.	8dd'	8dd'	.	.	.	.	.	.	.	.	.	.	.
=25	=25	=25	=25	=25	=25	=25	=25	=25	=25	=25	=25	=25	=25	=25
4Gz	4Bz	8ccn	8ccn	2.r	2.r	2.r	2.r	2.r	4Bz	4Bz	2.r	2.r	2.r	2.r
.	.	8b	8b	.	.	.	.	.	.	.	.	.	.	.
4B	4d	8a	8a	.	.	.	.	.	4d	4d	.	.	.	.
.	.	8g	8g	.	.	.	.	.	.	.	.	.	.	.
4D#	4F#	8cc'	8cc'	.	.	.	.	.	4F#	4F#	.	.	.	.
.	.	8b'	8b'	.	.	.	.	.	.	.	.	.	.	.
=26	=26	=26	=26	=26	=26	=26	=26	=26	=26	=26	=26	=26	=26	=26
4E	4G	8a	8a	2.r	2.r	2.r	2.r	2.r	4G	4G	2.r	2.r	2.r	2.r
.	.	8g	8g	.	.	.	.	.	.	.	.	.	.	.
4G	4B	8f#	8f#	.	.	.	.	.	4B	4B	.	.	.	.
.	.	8e	8e	.	.	.	.	.	.	.	.	.	.	.
4C#	4E	8b'	8b'	.	.	.	.	.	4E	4E	.	.	.	.
.	.	8a'	8a'	.	.	.	.	.	.	.	.	.	.	.
=27	=27	=27	=27	=27	=27	=27	=27	=27	=27	=27	=27	=27	=27	=27
4D	4F#	8g	8g	2.r	2.r	2.r	2.r	2.r	4F#	4F#	2.r	2.r	2.r	2.r
.	.	8f#	8f#	.	.	.	.	.	.	.	.	.	.	.
4F#	4A	8e	8e	.	.	.	.	.	4A	4A	.	.	.	.
.	.	8d	8d	.	.	.	.	.	.	.	.	.	.	.
4FF#	4F#	8A'	8A'	.	.	.	.	.	4F#	4F#	.	.	.	.
.	.	8d'	8d'	.	.	.	.	.	.	.	.	.	.	.
=28	=28	=28	=28	=28	=28	=28	=28	=28	=28	=28	=28	=28	=28	=28
4GG	4G	8B	8B	2.r	2.r	2.r	2.r	2.r	4G	4G	2.r	2.r	2.r	2.r
.	.	8e	8e	.	.	.	.	.	.	.	.	.	.	.
4AA	4A	8c#	8c#	.	.	.	.	.	4A	4A	.	.	.	.
.	.	8f#	8f#	.	.	.	.	.	.	.	.	.	.	.
4BB	4B	8d	8d	.	.	.	.	.	4B	4B	.	.	.	.
.	.	8g	8g	.	.	.	.	.	.	.	.	.	.	.
=29	=29	=29	=29	=29	=29	=29	=29	=29	=29	=29	=29	=29	=29	=29
2C#	4c#	8e	8e	4AA	4ryy	4r	4ryy	4r	2c#	2c#	2ee	2gg	4r	4r
.	.	8b	8b	.	.	.	.	.	.	.	.	.	.	.
.	4e	8a	8a	8AA	4a	4ee	4a	4ee	.	.	.	.	4aa	4aa
.	.	8gg	8gg	8AA	.	.	.	.	.	.	.	.	.	.
4D	4A	8ff#	8ff#	4D	4dd	4ff#	4dd	4ff#	4d	4d	4dd	4ff#	8ff#	8ff#
.	.	8dd	8dd	.	.	.	.	.	.	.	.	.	8dd	8dd
=30	=30	=30	=30	=30	=30	=30	=30	=30	=30	=30	=30	=30	=30	=30
4G	4B	8b	8b	4r	4ee	4gg	4ee	4gg	4G	4G	8b	8bb	4b	4b
.	.	8g	8ee	.	.	.	.	.	.	.	8ee	8gg	.	.
4A	4A	4f#	4dd	4r	4dd	4ff#	4dd	4ff#	4A	4A	4dd	4ff#	4a	4a
4AA	4G	4e	4cc#	8AA	4a	4ee	4a	4ee	4AA	4AA	4cc#	4ee	4ccc#	4ccc#
.	.	.	.	8AA	.	.	.	.	.	.	.	.	.	.
=31	=31	=31	=31	=31	=31	=31	=31	=31	=31	=31	=31	=31	=31	=31
4D	4F#	4d	4dd	16D	4f#	4dd	4f#	4dd	4D	4D	4dd	4dd	8ddd	8ddd
.	.	.	.	16D	.	.	.	.	.	.	.	.	.	.
.	.	.	.	16D	.	.	.	.	.	.	.	.	8ddd	8ddd
.	.	.	.	16D	.	.	.	.	.	.	.	.	.	.
4r	4r	4r	4r	16D	4ryy	4r	4ryy	4r	4r	4r	4ryy	4r	8ddd	8ddd
.	.	.	.	16D	.	.	.	.	.	.	.	.	.	.
.	.	.	.	16D	.	.	.	.	.	.	.	.	8ddd	8ddd
.	.	.	.	16D	.	.	.	.	.	.	.	.	.	.
4r	4r	4r	4r	16D	4ryy	4r	4ryy	4r	4r	4r	4ff#	4aa	8ddd	8ddd
.	.	.	.	16D	.	.	.	.	.	.	.	.	.	.
.	.	.	.	16D	.	.	.	.	.	.	.	.	8ddd	8ddd
.	.	.	.	16D	.	.	.	.	.	.	.	.	.	.
=32	=32	=32	=32	=32	=32	=32	=32	=32	=32	=32	=32	=32	=32	=32
2.r	2.r	4r	4r	16D	2.r	2.r	2.r	2.r	2.r	2.r	4ee#	4gg#	8ddd	8ddd
.	.	.	.	16D	.	.	.	.	.	.	.	.	.	.
.	.	.	.	16D	.	.	.	.	.	.	.	.	8ddd	8ddd
.	.	.	.	16D	.	.	.	.	.	.	.	.	.	.
.	.	4r	4r	16D	.	.	.	.	.	.	4ff#	4aa	8ddd	8ddd
.	.	.	.	16D	.	.	.	.	.	.	.	.	.	.
.	.	.	.	16D	.	.	.	.	.	.	.	.	8ddd	8ddd
.	.	.	.	16D	.	.	.	.	.	.	.	.	.	.
.	.	4f#	4a	16D	.	.	.	.	.	.	4ryy	4r	8ddd	8ddd
.	.	.	.	16D	.	.	.	.	.	.	.	.	.	.
.	.	.	.	16D	.	.	.	.	.	.	.	.	8ddd	8ddd
.	.	.	.	16D	.	.	.	.	.	.	.	.	.	.
=33	=33	=33	=33	=33	=33	=33	=33	=33	=33	=33	=33	=33	=33	=33
2.r	2.r	4e#	4g#	16D	2.r	2.r	2.r	2.r	2.r	2.r	4ryy	4r	8ddd	8ddd
.	.	.	.	16D	.	.	.	.	.	.	.	.	.	.
.	.	.	.	16D	.	.	.	.	.	.	.	.	8ddd	8ddd
.	.	.	.	16D	.	.	.	.	.	.	.	.	.	.
.	.	4f#	4a	16D	.	.	.	.	.	.	4ryy	4r	8ddd	8ddd
.	.	.	.	16D	.	.	.	.	.	.	.	.	.	.
.	.	.	.	16D	.	.	.	.	.	.	.	.	8ddd	8ddd
.	.	.	.	16D	.	.	.	.	.	.	.	.	.	.
.	.	4r	4r	16D	.	.	.	.	.	.	4ff#	4aa	8ddd	8ddd
.	.	.	.	16D	.	.	.	.	.	.	.	.	.	.
.	.	.	.	16D	.	.	.	.	.	.	.	.	8ddd	8ddd
.	.	.	.	16D	.	.	.	.	.	.	.	.	.	.
=34	=34	=34	=34	=34	=34	=34	=34	=34	=34	=34	=34	=34	=34	=34
2.r	2.r	4r	4r	16D	2.r	2.r	2.r	2.r	2.r	2.r	4ee#	4gg#	8ddd	8ddd
.	.	.	.	16D	.	.	.	.	.	.	.	.	.	.
.	.	.	.	16D	.	.	.	.	.	.	.	.	8ddd	8ddd
.	.	.	.	16D	.	.	.	.	.	.	.	.	.	.
.	.	4r	4r	16D	.	.	.	.	.	.	4ff#	4aa	8ddd	8ddd
.	.	.	.	16D	.	.	.	.	.	.	.	.	.	.
.	.	.	.	16D	.	.	.	.	.	.	.	.	8ddd	8ddd
.	.	.	.	16D	.	.	.	.	.	.	.	.	.	.
.	.	4f#	4a	16D	.	.	.	.	.	.	4ryy	4r	8ddd	8ddd
.	.	.	.	16D	.	.	.	.	.	.	.	.	.	.
.	.	.	.	16D	.	.	.	.	.	.	.	.	8ddd	8ddd
.	.	.	.	16D	.	.	.	.	.	.	.	.	.	.
=35	=35	=35	=35	=35	=35	=35	=35	=35	=35	=35	=35	=35	=35	=35
4r	4r	4e#	4g#	16D	2.r	2.r	2.r	2.r	4r	4r	4ryy	4r	8ddd	8ddd
.	.	.	.	16D	.	.	.	.	.	.	.	.	.	.
.	.	.	.	16D	.	.	.	.	.	.	.	.	8ddd	8ddd
.	.	.	.	16D	.	.	.	.	.	.	.	.	.	.
4r	4r	4f#	4a	16D	.	.	.	.	4r	4r	4ryy	4r	8ddd	8ddd
.	.	.	.	16D	.	.	.	.	.	.	.	.	.	.
.	.	.	.	16D	.	.	.	.	.	.	.	.	8ddd	8ddd
.	.	.	.	16D	.	.	.	.	.	.	.	.	.	.
4B	4d	4ff#	4ddd	16D	.	.	.	.	4B	4B	4dd	4ddd	8ddd	8ddd
.	.	.	.	16D	.	.	.	.	.	.	.	.	.	.
.	.	.	.	16D	.	.	.	.	.	.	.	.	8ddd	8ddd
.	.	.	.	16D	.	.	.	.	.	.	.	.	.	.
=36	=36	=36	=36	=36	=36	=36	=36	=36	=36	=36	=36	=36	=36	=36
4A#	4e	4gg	4ccc#	16D	2.r	2.r	2.r	2.r	4A#	4A#	4ee	4ccc#	4ccc#	4ccc#
.	.	.	.	16D	.	.	.	.	.	.	.	.	.	.
.	.	.	.	16D	.	.	.	.	.	.	.	.	.	.
.	.	.	.	16D	.	.	.	.	.	.	.	.	.	.
4B	4d	4ff#	4ddd	16D	.	.	.	.	4B	4B	4dd	4ddd	4ddd	4ddd
.	.	.	.	16D	.	.	.	.	.	.	.	.	.	.
.	.	.	.	16D	.	.	.	.	.	.	.	.	.	.
.	.	.	.	16D	.	.	.	.	.	.	.	.	.	.
4G'	4d'	4gg'	4bb'	16D	.	.	.	.	4G'	4G'	4gg'y	4bb'	4bb'	4bb'
.	.	.	.	16D	.	.	.	.	.	.	.	.	.	.
.	.	.	.	16D	.	.	.	.	.	.	.	.	.	.
.	.	.	.	16D	.	.	.	.	.	.	.	.	.	.
=37	=37	=37	=37	=37	=37	=37	=37	=37	=37	=37	=37	=37	=37	=37
2An	2d	8ff#	8aa	4AA	2dd	2ff#	2dd	2ff#	2An	2An	4ff#	8aa	8aa	8aa
.	.	8dd	8ff#	.	.	.	.	.	.	.	.	8ff#	8ff#	8ff#
.	.	4f#	4dd	8AA	.	.	.	.	.	.	4ff#	4dd	4dd	4dd
.	.	.	.	8AA	.	.	.	.	.	.	.	.	.	.
4AA	4A	4e	4cc#	4AA	4a	4ee	4a	4ee	4AA	4AA	4ee	4cc#	4cc#	4cc#
=38	=38	=38	=38	=38	=38	=38	=38	=38	=38	=38	=38	=38	=38	=38
4D	8d	8f#	4dd	4D	4f#	4dd	4f#	4dd	8d	8d	4dd	4dd	4dd	4dd
.	8f#	8a	.	.	.	.	.	.	8f#	8f#	.	.	.	.
4DD	8d	8f#	4r	4r	4ryy	4r	4ryy	4r	8d	8d	4r	4r	4r	4r
.	8f#	8a	.	.	.	.	.	.	8f#	8f#	.	.	.	.
4r	8d	8f#	4aa	4r	4ryy	4r	4ryy	4r	8d	8d	4r	4aa'	4r	4r
.	8f#	8a	.	.	.	.	.	.	8f#	8f#	.	.	.	.
=39	=39	=39	=39	=39	=39	=39	=39	=39	=39	=39	=39	=39	=39	=39
2.D	8d	8f#	4gg#	4D	4ryy	4r	4ryy	4r	8d	8d	4r	4gg#	4r	4r
.	8f#	8a	.	.	.	.	.	.	8f#	8f#	.	.	.	.
.	8d	8f#	4aa	4r	4dd	4ff#	4a	4aa	8d	8d	4ff#	4aa	4aa	4aa
.	8f#	8a	.	.	.	.	.	.	8f#	8f#	.	.	.	.
.	8d	8f#	8ff#'	4r	4dd	4ff#	4a	4aa	8d	8d	4ff#	8ff#'	4aa	4aa
.	8f#	8a	8dd'	.	.	.	.	.	8f#	8f#	.	8dd'	.	.
=40	=40	=40	=40	=40	=40	=40	=40	=40	=40	=40	=40	=40	=40	=40
2A	8e	8g	4cc#'	4AA	2.a	2.ee	2.a	[2.aa	8e	8e	4gg	4cc#'	4aa	4aa
.	8g	8a	.	.	.	.	.	.	8g	8g	.	.	.	.
.	8e	8g	4cc#'	4r	.	.	.	.	8e	8e	4r	4cc#'	4r	4r
.	8g	8a	.	.	.	.	.	.	8g	8g	.	.	.	.
4r	8e	8g	4aa'	4r	.	.	.	.	8e	8e	4r	4aa'	4r	4r
.	8g	8a	.	.	.	.	.	.	8g	8g	.	.	.	.
=41	=41	=41	=41	=41	=41	=41	=41	=41	=41	=41	=41	=41	=41	=41
4A	8c#	8e	4gg#	4AA	4a	4ee	2.a	2.aa_	8c#	8c#	4r	4gg#	4r	4r
.	8e	8a	.	.	.	.	.	.	8e	8e	.	.	.	.
4r	8c#	8g	4aa	8AA	4a	4ee	.	.	8c#	8c#	4ee	4aa	4eee	4eee
.	8e	8a	.	8AA	.	.	.	.	8e	8e	.	.	.	.
4r	8c#	8e	8ggn'	8AA	4a	4ee	.	.	8c#	8c#	4ee	8ggn'	4gg	4gg
.	8e	8a	8ee'	8AA	.	.	.	.	8e	8e	.	8ee'	.	.
=42	=42	=42	=42	=42	=42	=42	=42	=42	=42	=42	=42	=42	=42	=42
4D	8d	8f#	4ff#'	4D	2dd	2ff#	2a	2aa]	8d	8d	4ff#	4ff#'	4ff#	4ff#
.	8f#	8a	.	.	.	.	.	.	8f#	8f#	.	.	.	.
4r	8d	8f#	4ff#'	4r	.	.	.	.	8d	8d	4r	4ff#'	4ff#	4ff#
.	8f#	8a	.	.	.	.	.	.	8f#	8f#	.	.	.	.
4D	4D	8A	8ff#	4r	4ryy	4r	4ryy	4r	4D	4D	4a	8ff#	4r	4r
.	.	8a	8dd	.	.	.	.	.	.	.	.	8dd	.	.
=43	=43	=43	=43	=43	=43	=43	=43	=43	=43	=43	=43	=43	=43	=43
4G	4G	4b	4b'	4r	4ryy	4r	4ryy	4r	4G	4G	4b	4b'	4r	4r
4r	4r	4r	8ee	4r	4ryy	4r	4ryy	4r	4r	4r	4r	8ee	4r	4r
.	.	.	8cc#	.	.	.	.	.	.	.	.	8cc#	.	.
4A	4e	4A 4g	4a'	4AA	4a	4ee	4a	4ee	4A	4A	4g	4a'	4ccc#	4ccc#
=44	=44	=44	=44	=44	=44	=44	=44	=44	=44	=44	=44	=44	=44	=44
4D	4d	4A 4f#	4dd'	4D	4dd	4ff#	4dd	4ff#	4D	4D	4f#	4dd'	4ddd	4ddd
4D	4d	4A 4f#	4dd'	4r	4dd	4ff#	4dd	4ff#	4D	4D	4f#	4dd'	4ddd	4ddd
4r	4D	8a	8ff#	4r	4ryy	4r	4ryy	4r	4r	4r	4a	8ff#	4r	4r
.	.	8f#	8dd	.	.	.	.	.	.	.	.	8dd	.	.
=45	=45	=45	=45	=45	=45	=45	=45	=45	=45	=45	=45	=45	=45	=45
4G	4G	4b	4b'	4r	4ryy	4r	4ryy	4r	4G	4G	4b	4b'	4r	4r
4r	4r	4r	8ee	4r	4ryy	4r	4ryy	4r	4r	4r	4r	8ee	4r	4r
.	.	.	8cc#	.	.	.	.	.	.	.	.	8cc#	.	.
4A	4A 4g	4c# 4e	4a	4AA	4a	4ee	4a	4ee	4A	4A	4g	4a'	4ccc#	4ccc#
=46	=46	=46	=46	=46	=46	=46	=46	=46	=46	=46	=46	=46	=46	=46
4D	4A 4f#	4d 4f#	4dd'	4D	4f#	4dd	4f#	4dd	4D	4D	4f#	4dd'	4ddd	4ddd
4r	4r	4r	4r	4r	4ryy	4r	4ryy	4r	4r	4r	4ryy	4r	4r	4r
=:|	=:|	=:|	=:|	=:|	=:|	=:|	=:|	=:|	=:|	=:|	=:|	=:|	=:|	=:|
*>C	*>C	*>C	*>C	*>C	*>C	*>C	*>C	*>C	*>C	*>C	*>C	*>C	*>C	*>C
*k[f#c#]	*k[f#c#]	*k[f#c#]	*k[f#c#]	*k[f#c#]	*k[f#c#]	*k[f#c#]	*k[f#c#]	*k[f#c#]	*k[f#c#]	*k[f#c#]	*k[f#c#]	*k[f#c#]	*k[f#c#]	*k[f#c#]
*M3/4	*M3/4	*M3/4	*M3/4	*M3/4	*M3/4	*M3/4	*M3/4	*M3/4	*M3/4	*M3/4	*M3/4	*M3/4	*M3/4	*M3/4
4r	4r	4r	4r	[12D	12d	12dd	12d	12dd	12d	[12d	12dd	[12dd	12ddd	12ddd
.	.	.	.	12D]	12d	12dd	12d	12dd	12d	12d]	12dd	12dd]	12ddd	12ddd
.	.	.	.	12D	12d	12dd	12d	12dd	12d	12d	12dd	12dd	12ddd	12ddd
=47	=47	=47	=47	=47	=47	=47	=47	=47	=47	=47	=47	=47	=47	=47
2.r	2.r	2.r	2.r	4D	4d	4dd	4d	4dd	4d	4d	4dd	4dd	4ddd	4ddd
.	.	.	.	4r	4ryy	4r	4ryy	4r	4r	4r	4r	4r	4r	4r
.	.	.	.	[12D	12d	12dd	12d	12dd	12d	[12d	12dd	[12dd	12ddd	12ddd
.	.	.	.	12D]	12d	12dd	12d	12dd	12d	12d]	12dd	12dd]	12ddd	12ddd
.	.	.	.	12D	12d	12dd	12d	12dd	12d	12d	12dd	12dd	12ddd	12ddd
=48	=48	=48	=48	=48	=48	=48	=48	=48	=48	=48	=48	=48	=48	=48
2.r	2.r	2.r	2.r	4D	4d	4dd	4d	4dd	4d	4d	4dd	4dd	4ddd	4ddd
.	.	.	.	4r	4ryy	4r	4ryy	4r	4r	4r	4r	4r	4r	4r
.	.	.	.	[12D	12d	12dd	12d	12dd	12d	[12d	12dd	[12dd	12ddd	12ddd
.	.	.	.	12D]	12d	12dd	12d	12dd	12d	12d]	12dd	12dd]	12ddd	12ddd
.	.	.	.	12D	12d	12dd	12d	12dd	12d	12d	12dd	12dd	12ddd	12ddd
=49	=49	=49	=49	=49	=49	=49	=49	=49	=49	=49	=49	=49	=49	=49
2.r	2.r	2.r	2.r	4D	4d	4dd	4d	4dd	4d	4d	4dd	4dd	4ddd	4ddd
.	.	.	.	4D	4d	4dd	4d	4dd	4d	4d	4dd	4dd	4ddd	4ddd
.	.	.	.	4D	4d	4dd	4d	4dd	4d	4d	4dd	4dd	4ddd	4ddd
=50	=50	=50	=50	=50	=50	=50	=50	=50	=50	=50	=50	=50	=50	=50
2.r	2.r	2.r	4r	4D	4d	4dd	4d	4dd	4d	4d	4dd	4dd	4ddd	4ddd
.	.	.	4r	4r	4ryy	4r	4ryy	4r	4r	4r	4r	4r	4r	4r
.	.	.	8.b	4r	4ryy	4r	4ryy	4r	4r	4r	4r	4r	4r	4r
.	.	.	16b	.	.	.	.	.	.	.	.	.	.	.
=51	=51	=51	=51	=51	=51	=51	=51	=51	=51	=51	=51	=51	=51	=51
2.BB	2f#	2d	4b	2.r	2.r	2.r	2.r	2.r	2.r	2.r	2.r	2.r	2.r	2.r
.	.	.	4f#	.	.	.	.	.	.	.	.	.	.	.
.	4B	4f#	4dd'	.	.	.	.	.	.	.	.	.	.	.
=52	=52	=52	=52	=52	=52	=52	=52	=52	=52	=52	=52	=52	=52	=52
2.AA#	2c#	2f#	4cc#	2.r	2.r	2.r	2.r	2.r	2.r	2.r	2.r	2.r	2.r	2.r
.	.	.	4f#	.	.	.	.	.	.	.	.	.	.	.
.	4f#	8f#	4ff#'	.	.	.	.	.	.	.	.	.	.	.
.	.	8cc#	.	.	.	.	.	.	.	.	.	.	.	.
=53	=53	=53	=53	=53	=53	=53	=53	=53	=53	=53	=53	=53	=53	=53
4BB	2f#	2cc#	2ee	2.r	2.r	2.r	2.r	2.r	2.r	2.r	2.r	2.r	2.r	2.r
4B	.	.	.	.	.	.	.	.	.	.	.	.	.	.
4E#	4e#	4bT	4ddT	.	.	.	.	.	.	.	.	.	.	.
=54	=54	=54	=54	=54	=54	=54	=54	=54	=54	=54	=54	=54	=54	=54
4F#	4f#	4a#	4cc#	4r	4ryy	4r	4ryy	4r	4r	4r	4r	4r	4r	4r
4r	4r	4r	4r	4r	4ryy	4r	4ryy	4r	4r	4r	4r	4r	4r	4r
4r	4r	4r	4r	[12D	12d	12dd	12d	12dd	12d	[12d	12dd	[12dd	12ddd	[12ddd
.	.	.	.	12D]	12d	12dd	12d	12dd	12d	12d]	12dd	12dd]	12ddd	12ddd]
.	.	.	.	12D	12d	12dd	12d	12dd	12d	12d	12dd	12dd	12ddd	12ddd
=55	=55	=55	=55	=55	=55	=55	=55	=55	=55	=55	=55	=55	=55	=55
2.r	2.r	2.r	2.r	4D	4d	4dd	4d	4dd	4d	4d	4dd	4dd	4ddd	4ddd
.	.	.	.	4r	4ryy	4r	4ryy	4r	4r	4r	4r	4r	4r	4r
.	.	.	.	[12D	12d	12dd	12d	12dd	12d	[12d	12dd	[12dd	12ddd	[12ddd
.	.	.	.	12D]	12d	12dd	12d	12dd	12d	12d]	12dd	12dd]	12ddd	12ddd]
.	.	.	.	12D	12d	12dd	12d	12dd	12d	12d	12dd	12dd	12ddd	12ddd
=56	=56	=56	=56	=56	=56	=56	=56	=56	=56	=56	=56	=56	=56	=56
2.r	2.r	2.r	2.r	4D	4d	4dd	4d	4dd	4d	4d	4dd	4dd	4ddd	4ddd
.	.	.	.	4r	4ryy	4r	4ryy	4r	4r	4r	4r	4r	4r	4r
.	.	.	.	[12D	12d	12dd	12d	12dd	12d	[12d	12dd	[12dd	12ddd	[12ddd
.	.	.	.	12D]	12d	12dd	12d	12dd	12d	12d]	12dd	12dd]	12ddd	12ddd]
.	.	.	.	12D	12d	12dd	12d	12dd	12d	12d	12dd	12dd	12ddd	12ddd
=57	=57	=57	=57	=57	=57	=57	=57	=57	=57	=57	=57	=57	=57	=57
2.r	2.r	2.r	2.r	4D	4d	4dd	4d	4dd	4d	4d	4dd	4dd	4ddd	4ddd
.	.	.	.	4D	4d	4dd	4d	4dd	4d	4d	4dd	4dd	4ddd	4ddd
.	.	.	.	4D	4d	4dd	4d	4dd	4d	4d	4dd	4dd	4ddd	4ddd
=58	=58	=58	=58	=58	=58	=58	=58	=58	=58	=58	=58	=58	=58	=58
2.r	2.r	2.r	4r	4D	4d	4dd	4d	4dd	4d	4d	4dd	4dd	4ddd	4ddd
.	.	.	4r	4r	4ryy	4r	4ryy	4r	4r	4r	4r	4r	4r	4r
.	.	.	8.g	4r	4ryy	4r	4ryy	4r	4r	4r	4r	4r	4r	4r
.	.	.	16g	.	.	.	.	.	.	.	.	.	.	.
=59	=59	=59	=59	=59	=59	=59	=59	=59	=59	=59	=59	=59	=59	=59
2.G	2d	2B	4g	2.r	2.r	2.r	2.r	2.r	2.r	2.r	2.r	2.r	2.r	2.r
.	.	.	4d	.	.	.	.	.	.	.	.	.	.	.
.	4G	4d	4b	.	.	.	.	.	.	.	.	.	.	.
=60	=60	=60	=60	=60	=60	=60	=60	=60	=60	=60	=60	=60	=60	=60
2.F#	2A	2d	4a	2.r	2.r	2.r	2.r	2.r	2.r	2.r	2.r	2.r	2.r	2.r
.	.	.	4d	.	.	.	.	.	.	.	.	.	.	.
.	4d	8d	4dd'	.	.	.	.	.	.	.	.	.	.	.
.	.	8a	.	.	.	.	.	.	.	.	.	.	.	.
=61	=61	=61	=61	=61	=61	=61	=61	=61	=61	=61	=61	=61	=61	=61
4G	2d	2a	2ccn	2.r	2.r	2.r	2.r	2.r	2.r	2.r	2.r	2.r	2.r	2.r
4GG	.	.	.	.	.	.	.	.	.	.	.	.	.	.
4C#X	4c#X	4gT	4bt	.	.	.	.	.	.	.	.	.	.	.
=62	=62	=62	=62	=62	=62	=62	=62	=62	=62	=62	=62	=62	=62	=62
4D	4d	4f#	4a	4r	4r	4r	4r	4r	4r	4r	4r	4r	4r	4r
4r	4r	4r	4r	4r	4r	4r	4r	4r	4r	4r	4r	4r	4r	4r
4r	4r	4r	4r	[12D	12dd	[12dd	12dd	[12dd	12d	[12d	12dd	[12dd	12ddd	[12ddd
.	.	.	.	12D]	12dd	12dd]	12dd	12dd]	12d	12d]	12dd	12dd]	12ddd	12ddd]
.	.	.	.	12D	12dd	12dd	12dd	12dd	12d	12d	12dd	12dd	12ddd	12ddd
=63	=63	=63	=63	=63	=63	=63	=63	=63	=63	=63	=63	=63	=63	=63
2.r	2.r	2.r	2.r	4D	4dd	4dd	4dd	4dd	4d	4d	4dd	4dd	4ddd	4ddd
.	.	.	.	4r	4r	4r	4r	4r	4r	4r	4r	4r	4r	4r
.	.	.	.	[12D	12dd	[12dd	12dd	[12dd	12d	[12d	12dd	[12dd	12ddd	[12ddd
.	.	.	.	12D]	12dd	12dd]	12dd	12dd]	12d	12d]	12dd	12dd]	12ddd	12ddd]
.	.	.	.	12D	12dd	12dd	12dd	12dd	12d	12d	12dd	12dd	12ddd	12ddd
=64	=64	=64	=64	=64	=64	=64	=64	=64	=64	=64	=64	=64	=64	=64
4r	4r	4r	4r	4D	4dd	4dd	4dd	4dd	4d	4d	4dd	4dd	4ddd	4ddd
4r	4r	4r	4r	4r	4r	4r	4r	4r	4r	4r	4r	4r	4r	4r
12G#	[12g#	12d 12b	[12ee	4r	12ee	[12ee	12ee	[12ee	12e	[12e	12ee	[12ee	12eee	[12eee
12G#	12g#]	12d 12b	12ee]	.	12ee	12ee]	12ee	12ee]	12e	12e]	12ee	12ee]	12eee	12eee]
12G#	12g#	12d 12b	12ee	.	12ee	12ee	12ee	12ee	12e	12e	12ee	12ee	12eee	12eee
=65	=65	=65	=65	=65	=65	=65	=65	=65	=65	=65	=65	=65	=65	=65
4G#	4g#	4d 4b	4ee	2.r	4ee	4ee	4ee	4ee	4G#	4G#	4b	4ee	4eee	4eee
4G#	4g#	4d 4b	4ee	.	4ee	4ee	4ee	4ee	4G#	4G#	4b	4ee	4eee	4eee
4G#	4g#	4d 4b	4ee	.	4ee	4ee	4ee	4ee	4G#	4G#	4b	4ee	4eee	4eee
=66	=66	=66	=66	=66	=66	=66	=66	=66	=66	=66	=66	=66	=66	=66
2A	2a	2c# 2a	2ee	4AA	2a	2ee	2a	2ee	4A	4A	2cc#	2ee	2eee	2eee
.	.	.	.	4r	.	.	.	.	4r	4r	.	.	.	.
4AA	4cc#	4cc# 4aa	4aa	4r	4ryy	4r	4ryy	4r	4r	4r	4ryy	4r	4aa	4aa
=67	=67	=67	=67	=67	=67	=67	=67	=67	=67	=67	=67	=67	=67	=67
4E	8e	4e 4b 4gg#	8ee	2.r	2.r	2.r	4ryy	4r	4r	4r	4ryy	4r	4r	4r
.	8f#	.	8ff#	.	.	.	.	.	.	.	.	.	.	.
4r	8e	4r	8ee	.	.	.	4ee	4ee	4E	4E	4b	4gg#	4ddd	4ddd
.	8d	.	8dd	.	.	.	.	.	.	.	.	.	.	.
4r	8c#	4r	8cc#	.	.	.	4ee	4ee	4E	4E	4b	4gg#	4ddd	4ddd
.	8B	.	8b	.	.	.	.	.	.	.	.	.	.	.
=68	=68	=68	=68	=68	=68	=68	=68	=68	=68	=68	=68	=68	=68	=68
4A	8A	4e 4cc# 4aa	8a	2.r	2.r	2.r	4ryy	4r	4r	4r	4ryy	4r	4r	4r
.	8G#	.	8g#	.	.	.	.	.	.	.	.	.	.	.
4r	8A	4r	8a	.	.	.	4a	4ee	4AA	4AA	4cc#	4aa	4ccc#	4ccc#
.	8B	.	8b	.	.	.	.	.	.	.	.	.	.	.
4r	8c#	4r	8cc#	.	.	.	4a	4ee	4AA	4AA	4cc#	4aa	4ccc#	4ccc#
.	8d	.	8dd	.	.	.	.	.	.	.	.	.	.	.
=69	=69	=69	=69	=69	=69	=69	=69	=69	=69	=69	=69	=69	=69	=69
4E	8e	4e 4b 4gg#	8ee	2.r	2.r	2.r	4ryy	4r	4r	4r	4ryy	4r	4r	4r
.	8f#	.	8ff#	.	.	.	.	.	.	.	.	.	.	.
4r	8e	4r	8ee	.	.	.	4ee	4ee	4E	4E	4b	4gg#	4ddd	4ddd
.	8d	.	8dd	.	.	.	.	.	.	.	.	.	.	.
4r	8c#	4r	8cc#	.	.	.	4ee	4ee	4E	4E	4b	4gg#	4ddd	4ddd
.	8B	.	8b	.	.	.	.	.	.	.	.	.	.	.
=70	=70	=70	=70	=70	=70	=70	=70	=70	=70	=70	=70	=70	=70	=70
4A	8A	4e 4cc# 4aa	8a	2.r	2.r	2.r	4ryy	4r	4r	4r	4ryy	4r	4r	4r
.	8G#	.	8g#	.	.	.	.	.	.	.	.	.	.	.
4r	8A	4r	8a	.	.	.	4a	4ee	4AA	4AA	4cc#	4aa	4ccc#	4ccc#
.	8B	.	8b	.	.	.	.	.	.	.	.	.	.	.
4r	8c#	4r	8cc#	.	.	.	4a	4ee	4AA	4AA	4cc#	4aa	4ccc#	4ccc#
.	8d	.	8dd	.	.	.	.	.	.	.	.	.	.	.
=71	=71	=71	=71	=71	=71	=71	=71	=71	=71	=71	=71	=71	=71	=71
4E	8e	4e 4b 4gg#	8ee	2.r	2.r	2.r	4ryy	4r	4r	4r	4ryy	4r	4r	4r
.	8f#	.	8ff#	.	.	.	.	.	.	.	.	.	.	.
4E	8e	4r	8ee	.	.	.	4ee	4ee	4E	4E	4b	4gg#	4ddd	4ddd
.	8d	.	8dd	.	.	.	.	.	.	.	.	.	.	.
4E	8c#	4r	8cc#	.	.	.	4ee	4ee	4E	4E	4b	4gg#	4ddd	4ddd
.	8B	.	8b	.	.	.	.	.	.	.	.	.	.	.
=72	=72	=72	=72	=72	=72	=72	=72	=72	=72	=72	=72	=72	=72	=72
4A	4A	4e 4cc# 4aa	4a	4r	4r	4r	4a	4ee	4AA	4AA	4cc#	4aa	4ccc#	4ccc#
4r	4r	4r	4r	4r	4r	4r	4ryy	4r	4r	4r	4ryy	4r	4r	4r
=|:	=|:	=|:	=|:	=|:	=|:	=|:	=|:	=|:	=|:	=|:	=|:	=|:	=|:	=|:
*>D	*>D	*>D	*>D	*>D	*>D	*>D	*>D	*>D	*>D	*>D	*>D	*>D	*>D	*>D
4r	4r	4r	4r	12AA	12a	[12aa	12a	[12aa	12A	[12A	12a	[12aa	12aa	[12aa
.	.	.	.	12AA	12a	12aa]	12a	12aa]	12A	12A]	12a	12aa]	12aa	12aa]
.	.	.	.	12AA	12a	12aa	12a	12aa	12A	12A	12a	12aa	12aa	12aa
=73	=73	=73	=73	=73	=73	=73	=73	=73	=73	=73	=73	=73	=73	=73
2.r	2.r	2.r	2.r	4AA	4a	4aa	4a	4aa	4A	4A	4a	4aa	4aa	4aa
.	.	.	.	4r	4ryy	4r	4ryy	4r	4r	4r	4ryy	4r	4r	4r
.	.	.	.	12AA	12a	[12aa	12a	[12aa	12A	[12A	12a	[12aa	12aa	[12aa
.	.	.	.	12AA	12a	12aa]	12a	12aa]	12A	12A]	12a	12aa]	12aa	12aa]
.	.	.	.	12AA	12a	12aa	12a	12aa	12A	12A	12a	12aa	12aa	12aa
=74	=74	=74	=74	=74	=74	=74	=74	=74	=74	=74	=74	=74	=74	=74
2.r	2.r	2.r	2.r	4AA	4a	4aa	4a	4aa	4A	4A	4a	4aa	4aa	4aa
.	.	.	.	4r	4ryy	4r	4ryy	4r	4r	4r	4ryy	4r	4r	4r
.	.	.	.	12AA	12a	[12aa	12a	[12aa	12A	[12A	12a	[12aa	12aa	[12aa
.	.	.	.	12AA	12a	12aa]	12a	12aa]	12A	12A]	12a	12aa]	12aa	12aa]
.	.	.	.	12AA	12a	12aa	12a	12aa	12A	12A	12a	12aa	12aa	12aa
=75	=75	=75	=75	=75	=75	=75	=75	=75	=75	=75	=75	=75	=75	=75
2.r	2.r	2.r	2.r	4AA	4a	4aa	4a	4aa	4A	4A	4a	4aa	4aa	4aa
.	.	.	.	4AA	4a	4aa	4a	4aa	4A	4A	4a	4aa	4aa	4aa
.	.	.	.	4AA	4a	4aa	4a	4aa	4A	4A	4a	4aa	4aa	4aa
=76	=76	=76	=76	=76	=76	=76	=76	=76	=76	=76	=76	=76	=76	=76
2.r	2.r	2.r	4r	4AA	4a	4aa	4a	4aa	4A	4A	4a	4aa	4aa	4aa
.	.	.	4r	4r	4ryy	4r	4ryy	4r	4r	4r	4ryy	4r	4r	4r
.	.	.	8.fn	4r	4ryy	4r	4ryy	4r	4r	4r	4ryy	4r	4r	4r
.	.	.	16f	.	.	.	.	.	.	.	.	.	.	.
=77	=77	=77	=77	=77	=77	=77	=77	=77	=77	=77	=77	=77	=77	=77
2.Fn	[2.cn	2.A	4fn	2.r	2.r	2.r	2.r	2.r	2.r	2.r	2.r	2.r	2.r	2.r
.	.	.	4cn	.	.	.	.	.	.	.	.	.	.	.
.	.	.	4a'	.	.	.	.	.	.	.	.	.	.	.
=78	=78	=78	=78	=78	=78	=78	=78	=78	=78	=78	=78	=78	=78	=78
2E	2c]	[2.cn	4g	2.r	2.r	2.r	2.r	2.r	2.r	2.r	2.r	2.r	2.r	2.r
.	.	.	4cn	.	.	.	.	.	.	.	.	.	.	.
4E-	4G	.	8ccn'	.	.	.	.	.	.	.	.	.	.	.
.	.	.	8g'	.	.	.	.	.	.	.	.	.	.	.
=79	=79	=79	=79	=79	=79	=79	=79	=79	=79	=79	=79	=79	=79	=79
2D	4A	4c]	4f#X	2.r	2.r	2.r	2.r	2.r	2.r	2.r	2.r	2.r	2.r	2.r
.	4F#X	8a'	4d	.	.	.	.	.	.	.	.	.	.	.
.	.	8f#X'	.	.	.	.	.	.	.	.	.	.	.	.
4F#X	4A'	4d'	4ccn'	.	.	.	.	.	.	.	.	.	.	.
=80	=80	=80	=80	=80	=80	=80	=80	=80	=80	=80	=80	=80	=80	=80
2G	2B-	[2.d	4b-	2.r	2.r	2.r	2.r	2.r	2.r	2.r	2.r	2.r	2.r	2.r
.	.	.	4g	.	.	.	.	.	.	.	.	.	.	.
4Fn	4A	.	8dd'	.	.	.	.	.	.	.	.	.	.	.
.	.	.	8a'	.	.	.	.	.	.	.	.	.	.	.
=81	=81	=81	=81	=81	=81	=81	=81	=81	=81	=81	=81	=81	=81	=81
2En	4B	4d]	4g#	2.r	2.r	2.r	2.r	2.r	2.r	2.r	2.r	2.r	2.r	2.r
.	4G#	8bn'	4e	.	.	.	.	.	.	.	.	.	.	.
.	.	8g#'	.	.	.	.	.	.	.	.	.	.	.	.
4G#	4B'	4e'	4dd'	.	.	.	.	.	.	.	.	.	.	.
=82	=82	=82	=82	=82	=82	=82	=82	=82	=82	=82	=82	=82	=82	=82
2.A	[2.A	2e	4cc#X	2.r	2.r	2.r	2.r	2.r	2.r	2.r	2.r	2.r	2.r	2.r
.	.	.	4a	.	.	.	.	.	.	.	.	.	.	.
.	.	4c#X	4ee'	.	.	.	.	.	.	.	.	.	.	.
=83	=83	=83	=83	=83	=83	=83	=83	=83	=83	=83	=83	=83	=83	=83
[2.AA	4A]	2.d	4ffn	2.r	2.r	2.r	2.r	2.r	2.r	2.r	4ryy	4r	2.r	2.r
.	4fn	.	4dd	.	.	.	.	.	.	.	4dd	4ffn	.	.
.	4f	.	4g#	.	.	.	.	.	.	.	4dd	4ff	.	.
=84	=84	=84	=84	=84	=84	=84	=84	=84	=84	=84	=84	=84	=84	=84
2.AA_	2e	2.c#	4a	2.r	2.r	2.r	2.r	2.r	2.r	2.r	4ryy	4r	2.r	2.r
.	.	.	4cc#	.	.	.	.	.	.	.	4cc#	4ee	.	.
.	4c#	.	4ee	.	.	.	.	.	.	.	4cc#	4ee	.	.
=85	=85	=85	=85	=85	=85	=85	=85	=85	=85	=85	=85	=85	=85	=85
2.AA_	4d	2.d	4ffn	2.r	2.r	2.r	2.r	2.r	2.r	2.r	4ryy	4r	2.r	2.r
.	4fn	.	4dd	.	.	.	.	.	.	.	4dd	4ffn	.	.
.	4f	.	4g#	.	.	.	.	.	.	.	4dd	4ff	.	.
=86	=86	=86	=86	=86	=86	=86	=86	=86	=86	=86	=86	=86	=86	=86
4AA]	4e	4c#	4a	4r	4ryy	4r	4ryy	4r	4r	4r	4cc#	4ee	4r	4r
4r	4r	4r	4r	4r	4ryy	4r	4ryy	4r	4r	4r	4ryy	4r	4r	4r
4r	4r	4r	4r	[12D	12d	12dd	12d	12dd	12d	[12d	12dd	[12dd	12ddd	[12ddd
.	.	.	.	12D]	12d	12dd	12d	12dd	12d	12d]	12dd	12dd]	12ddd	12ddd]
.	.	.	.	12D	12d	12dd	12d	12dd	12d	12d	12dd	12dd	12ddd	12ddd
=87	=87	=87	=87	=87	=87	=87	=87	=87	=87	=87	=87	=87	=87	=87
4r	4r	4r	4r	4D	4d	4dd	4d	4dd	4d	4d	4dd	4dd	4ddd	4ddd
4F#	4f#X 4a	4d 4dd 4ddd	4d 4dd 4ddd	4r	4ryy	4r	4ryy	4r	4r	4r	4r	4r	4r	4r
4r	4r	4r	4r	[12D	12d	12dd	12d	12dd	12d	[12d	12dd	[12dd	12ddd	[12ddd
.	.	.	.	12D]	12d	12dd	12d	12dd	12d	12d]	12dd	12dd]	12ddd	12ddd]
.	.	.	.	12D	12d	12dd	12d	12dd	12d	12d	12dd	12dd	12ddd	12ddd
=88	=88	=88	=88	=88	=88	=88	=88	=88	=88	=88	=88	=88	=88	=88
4r	4r	4r	4r	4D	4d	4dd	4d	4dd	4d	4d	4dd	4dd	4ddd	4ddd
4F#	4f# 4a	4d 4dd 4cccn	4d 4dd 4cccn	4r	4ryy	4r	4ryy	4r	4r	4r	4r	4r	4r	4r
4r	4r	4r	4r	[12D	12d	12dd	12d	12dd	12d	[12d	12dd	[12dd	12ddd	[12ddd
.	.	.	.	12D]	12d	12dd	12d	12dd	12d	12d]	12dd	12dd]	12ddd	12ddd]
.	.	.	.	12D	12d	12dd	12d	12dd	12d	12d	12dd	12dd	12ddd	12ddd
=89	=89	=89	=89	=89	=89	=89	=89	=89	=89	=89	=89	=89	=89	=89
4G	4g	4d 4dd 4bb	4d 4dd 4bb	4D	4d	4dd	4d	4dd	4d	4d	4dd	4dd	4ddd	4ddd
4F#	4f#	4d 4dd 4aa	4d 4dd 4aa	4D	4d	4dd	4d	4dd	4d	4d	4dd	4dd	4ddd	4ddd
4D	4f#	4d 4dd 4cccn	4d 4dd 4cccn	4D	4d	4dd	4d	4dd	4d	4d	4dd	4dd	4ddd	4ddd
=90	=90	=90	=90	=90	=90	=90	=90	=90	=90	=90	=90	=90	=90	=90
4G	4g	4d 4dd 4bb	4d 4dd 4bb	4D	4d	4dd	4d	4dd	4d	4d	4dd	4dd	4ddd	4ddd
4F#	4f#	4d 4dd 4aa	4d 4dd 4aa	4D	4d	4dd	4d	4dd	4d	4d	4dd	4dd	4ddd	4ddd
4D	4f#	4d 4dd 4cccn	4d 4dd 4cccn	4D	4d	4dd	4d	4dd	4d	4d	4dd	4dd	4ddd	4ddd
=91	=91	=91	=91	=91	=91	=91	=91	=91	=91	=91	=91	=91	=91	=91
4G	4g	4d 4dd 4bb	4d 4dd 4bb	8D	4d	4dd	4d	4dd	4d	4d	4dd	4dd	4ddd	4ddd
.	.	.	.	8D	.	.	.	.	.	.	.	.	.	.
4F#	4f#	4d 4dd 4aa	4d 4dd 4aa	8D	4d	4dd	4d	4dd	4d	4d	4dd	4dd	4ddd	4ddd
.	.	.	.	8D	.	.	.	.	.	.	.	.	.	.
4D	4f#	4d 4dd 4cccn	4d 4dd 4cccn	8D	4d	4dd	4d	4dd	4d	4d	4dd	4dd	4ddd	4ddd
.	.	.	.	8D	.	.	.	.	.	.	.	.	.	.
=92	=92	=92	=92	=92	=92	=92	=92	=92	=92	=92	=92	=92	=92	=92
4G	4g	4d 4dd 4bb	4d 4dd 4bb	4D	4d	4dd	4d	4dd	4d	4d	4dd	4bb	4bb	4bb
4r	4r	4r	4r	4r	4ryy	4r	4ryy	4r	4r	4r	4ryy	4r	4r	4r
4GG	4G	8bb	8ddd	4r	4ryy	4r	4ryy	4r	4G	4G	4gg	4bb	8ddd	8ddd
.	.	8gg	8bb	.	.	.	.	.	.	.	.	.	8bb	8bb
=93	=93	=93	=93	=93	=93	=93	=93	=93	=93	=93	=93	=93	=93	=93
2.AA	2.A	8ff#	8aa	2.r	2.r	2.r	2.r	2.r	2A	2A	8ff#	8aa	8aa	8aa
.	.	8gg	8bb	.	.	.	.	.	.	.	8gg	8bb	8bb	8bb
.	.	8ff#	8aa	.	.	.	.	.	.	.	8ff#	8aa	8aa	8aa
.	.	8ee	8gg	.	.	.	.	.	.	.	8ee	8gg	8gg	8gg
.	.	8dd	8ff#	.	.	.	.	.	4AA	4AA	8dd	8ff#	8ff#	8ff#
.	.	8cc#	8ee	.	.	.	.	.	.	.	8cc#	8ee	8ee	8ee
=94	=94	=94	=94	=94	=94	=94	=94	=94	=94	=94	=94	=94	=94	=94
4D	8d	4dd	8dd	4r	4ryy	4r	4ryy	4r	4D	4D	4dd	4dd	4dd	4dd
.	8c#	.	8cc#	.	.	.	.	.	.	.	.	.	.	.
4r	8d	4r	8dd	4D	4f#	4dd	4f#	4dd	4D	4D	4dd	4ff#	4ddd	4ddd
.	8e	.	8ee	.	.	.	.	.	.	.	.	.	.	.
4r	8f#	4r	8ff#	4D	4f#	4dd	4f#	4dd	4D	4D	4dd	4ff#	4ddd	4ddd
.	8g	.	8gg	.	.	.	.	.	.	.	.	.	.	.
=95	=95	=95	=95	=95	=95	=95	=95	=95	=95	=95	=95	=95	=95	=95
4AA	8a	4A 4e 4cc#	8aa	4r	4ryy	4r	4ryy	4r	4r	4r	4ryy	4r	4r	4r
.	8b	.	8bb	.	.	.	.	.	.	.	.	.	.	.
4r	8a	4r	8aa	4AA	4a	4ee	4a	4ee	4AA	4AA	4ee	4gg	4ccc#	4ccc#
.	8g	.	8gg	.	.	.	.	.	.	.	.	.	.	.
4r	8f#	4r	8ff#	4AA	4a	4ee	4a	4ee	4AA	4AA	4ee	4gg	4ccc#	4ccc#
.	8e	.	8ee	.	.	.	.	.	.	.	.	.	.	.
=96	=96	=96	=96	=96	=96	=96	=96	=96	=96	=96	=96	=96	=96	=96
4D	8d	4A 4f# 4dd	8dd	4r	4ryy	4r	4ryy	4r	4r	4r	4ryy	4r	4r	4r
.	8c#	.	8cc#	.	.	.	.	.	.	.	.	.	.	.
4r	8d	4r	8dd	4D	4dd	4ff#	4dd	4ff#	4D	4D	4dd	4ff#	4ddd	4ddd
.	8e	.	8ee	.	.	.	.	.	.	.	.	.	.	.
4r	8f#	4r	8ff#	4D	4dd	4ff#	4dd	4ff#	4D	4D	4dd	4ff#	4ddd	4ddd
.	8g	.	8gg	.	.	.	.	.	.	.	.	.	.	.
=97	=97	=97	=97	=97	=97	=97	=97	=97	=97	=97	=97	=97	=97	=97
4AA	8a	4a 4cc# 4ee	8aa	4r	4ryy	4r	4ryy	4r	4r	4r	4ryy	4r	4r	4r
.	8b	.	8bb	.	.	.	.	.	.	.	.	.	.	.
4r	8a	4r	8aa	4AA	4a	4ee	4a	4ee	4AA	4AA	4ee	4gg	4ccc#	4ccc#
.	8g	.	8gg	.	.	.	.	.	.	.	.	.	.	.
4r	8f#	4r	8ff#	8AA	4a	4ee	4a	4ee	4AA	4AA	4ee	4gg	4ccc#	4ccc#
.	8e	.	8ee	8AA	.	.	.	.	.	.	.	.	.	.
=98	=98	=98	=98	=98	=98	=98	=98	=98	=98	=98	=98	=98	=98	=98
4D	4d	4d 4a 4ff#	4dd	4D	4f#	4dd	4f#	4dd	4D	4D	4dd	4ff#	4ddd	4ddd
4r	4r	4r	4r	4r	4ryy	4r	4ryy	4r	4r	4r	4ryy	4r	4r	4r
=:|	=:|	=:|	=:|	=:|	=:|	=:|	=:|	=:|	=:|	=:|	=:|	=:|	=:|	=:|
*-	*-	*-	*-	*-	*-	*-	*-	*-	*-	*-	*-	*-	*-	*-
!!!CDT: 1732/03/31/-1809/05/31/
!!!CNT: Austrian
!!!PPR: Ernst Eulenburg, Ltd.
!!!PPP: London
!!!PDT: 1880///
!!!AGN: symphony
!!!AST: classical, orchestral
!!!YOR: Ernst Praetorius, editor
!!!RDT: 1995 February 15
!!!YER: March 2012
!!!EEV: 2.0
!!!EFL: 3/48
!!!ENC: Frances Bennion
!!!EED: W.B. Hewlett
!!!ONB: Converted from MuseData Fall 2011 by Andreas Kornstaedt
!!!ONB: Manual editing 2012/02/22/ by Craig Stuart Sapp
!!!YEC: Copyright 1996,2012 Center for Computer Assisted Research in the Humanities
!!!YEM: Rights to all derivative electronic formats reserved.
!!!YEM: Refer to licensing agreement for further details.
